frontend/public/svg/weather/cloudy-night.svg

<svg width="165" height="128" viewBox="0 0 165 128" fill="none" xmlns="http://www.w3.org/2000/svg">
<g clip-path="url(#clip0)">
<path d="M162.522 38.8828C161.2 37.5741 159.251 37.0344 157.025 37.358C156.796 37.3921 156.566 37.4459 156.337 37.4997C156.135 37.5469 155.933 37.5878 155.73 37.6279C151.773 38.3963 147.699 38.3433 143.763 37.4721C139.827 36.601 136.111 34.9303 132.847 32.5637C126.609 28.1597 122.124 23.1119 119.143 17.1589C117.74 14.3465 116.479 11.4196 115.259 8.58747C114.734 7.35945 114.199 6.12532 113.66 4.90453C112.216 1.66091 110.908 0.979894 107.549 1.74847C106.496 1.97349 105.466 2.29843 104.474 2.71951C93.1912 7.67615 86.0621 16.1877 83.2746 28.0103C82.7351 30.5254 82.3452 33.0706 82.1076 35.6319C81.9659 36.8731 81.8175 38.1468 81.6423 39.4424L81.4939 40.5012L80.6033 39.9142C80.2528 39.6851 79.9161 39.4619 79.5853 39.2328C78.8909 38.7675 78.23 38.3225 77.5507 37.9201C68.7492 32.7003 60.2175 30.1171 51.7133 30.1171C48.0845 30.1242 44.4707 30.5841 40.9558 31.4862C27.6547 34.7713 16.1665 43.1299 8.94755 54.7747C-0.386246 69.6526 -1.58015 85.8793 5.40722 102.996C9.12273 112.101 15.7192 118.629 25.0195 122.399C31.8892 125.288 39.2327 126.887 46.6819 127.114C58.2334 127.33 70.1518 127.179 80.6729 127.048C86.7499 126.967 93.9388 126.812 101.162 126.266C108.365 125.726 115.784 124.923 123.85 123.817C128.246 123.19 132.592 122.26 136.859 121.032C141.756 119.727 146.061 116.788 149.06 112.703C151.352 109.715 153.361 106.52 155.062 103.16C160.66 91.4923 159.788 80.2964 152.466 69.8896C152.176 69.4721 151.875 69.054 151.547 68.609L150.73 67.4966L151.115 67.085C151.297 66.896 151.465 66.7142 151.628 66.5388C151.956 66.1745 152.268 65.8373 152.612 65.5203C156.693 61.6284 159.888 56.9036 161.98 51.6673C162.981 49.2416 163.672 46.699 164.037 44.1002C164.212 43.1726 164.166 42.2172 163.902 41.3108C163.639 40.4043 163.167 39.5727 162.522 38.8828ZM149.061 90.24C148.608 99.7969 144.117 106.885 135.707 111.316C130.984 113.873 125.748 115.339 120.384 115.605C110.801 116.065 101.061 116.69 91.6468 117.304C86.555 117.628 81.4559 117.96 76.364 118.262C73.3626 118.444 70.308 118.546 67.3538 118.64C65.9781 118.688 64.6023 118.736 63.2262 118.788L62.4846 118.808C59.6991 118.883 56.8801 118.957 54.0473 118.957C49.0864 119.023 44.1289 118.659 39.2304 117.872C36.0039 117.311 32.8147 116.554 29.6801 115.605C19.7261 112.544 13.3188 105.542 10.6278 94.7989C5.95402 76.1175 11.4575 59.5878 26.1174 48.2574C30.4742 44.8917 35.7754 41.2774 42.0743 39.9686C57.512 36.7716 70.5686 40.8391 80.8875 52.075C84.5741 56.128 87.4279 60.8671 89.284 66.0222C90.9702 70.6168 91.1795 74.5056 89.9404 78.2828C89.6273 79.3986 89.6549 80.5833 90.0211 81.6826C90.1812 82.19 90.4543 82.654 90.8205 83.0406C91.1861 83.4272 91.635 83.7258 92.1325 83.9135C92.6661 84.0927 93.2332 84.1505 93.7924 84.0822C94.351 84.0139 94.8878 83.8223 95.363 83.5204C96.0194 83.0852 96.614 82.5634 97.1299 81.9681C97.3183 81.766 97.5073 81.5711 97.6963 81.382C98.4918 80.5944 99.2676 79.7839 100.043 78.9746C101.574 77.3764 103.166 75.7172 104.886 74.249C112.426 67.8083 121.652 65.6093 132.287 67.7204C143.193 69.8856 149.62 78.5184 149.061 90.24ZM150.99 49.5919C149.371 53.9487 146.444 57.5235 141.784 60.8419L141.486 61.0509L141.149 60.9156C134.283 58.2605 126.844 57.4311 119.561 58.5082C112.669 59.4586 106.248 62.3056 99.9489 67.215L99.2814 67.7348L98.9237 66.9656C98.2896 65.6092 97.6622 64.2757 97.0419 62.966C95.5245 59.7625 94.095 56.7407 92.7928 53.612C91.9153 51.384 91.322 49.0549 91.0259 46.6788C89.5761 36.6637 91.0666 28.3885 95.5783 21.388C98.5259 16.8218 101.237 14.3739 106.315 11.6698L106.929 11.3461L107.239 11.9595C107.334 12.1617 107.448 12.3576 107.549 12.546C107.824 13.0035 108.052 13.4867 108.231 13.9894C110.112 19.7225 112.965 27.0804 118.381 33.1437C126.126 41.8074 134.648 46.7467 144.437 48.2504C145.775 48.4285 147.121 48.5369 148.471 48.5747C149.118 48.6082 149.765 48.6404 150.413 48.6824L151.31 48.7433L150.99 49.5919Z" fill="black"/>
</g>
<defs>
<clipPath id="clip0">
<rect width="164.084" height="126.673" fill="white" transform="translate(0.329102 0.907227)"/>
</clipPath>
</defs>
</svg>

<svg xmlns="http://www.w3.org/2000/svg" width="165" height="128" fill="none" viewBox="0 0 165 128"><g clip-path="url(#a)"><path fill="#000" d="M162.522 38.883c-1.322-1.309-3.271-1.849-5.497-1.525a9 9 0 0 0-.688.142q-.303.07-.607.128a29.43 29.43 0 0 1-22.883-5.064c-6.238-4.404-10.723-9.452-13.704-15.405-1.403-2.812-2.664-5.74-3.884-8.572a342 342 0 0 0-1.599-3.682c-1.444-3.244-2.752-3.925-6.111-3.157a17 17 0 0 0-3.075.972c-11.283 4.956-18.412 13.468-21.2 25.29a65 65 0 0 0-1.166 7.622c-.142 1.241-.29 2.515-.466 3.81l-.148 1.06-.89-.588a45 45 0 0 1-1.019-.681c-.694-.465-1.355-.91-2.034-1.313-8.802-5.22-17.333-7.803-25.838-7.803a43.6 43.6 0 0 0-10.757 1.37A52.46 52.46 0 0 0 8.948 54.774C-.386 69.653-1.58 85.879 5.408 102.996c3.715 9.105 10.311 15.633 19.612 19.403a60.7 60.7 0 0 0 21.662 4.715c11.551.216 23.47.065 33.99-.066 6.078-.081 13.267-.236 20.49-.782 7.203-.54 14.622-1.343 22.688-2.449a96 96 0 0 0 13.009-2.785 22.24 22.24 0 0 0 12.201-8.329 61 61 0 0 0 6.002-9.543c5.598-11.668 4.726-22.864-2.596-33.27-.29-.418-.591-.836-.919-1.281l-.817-1.112.385-.412c.182-.189.35-.37.513-.546.328-.365.64-.702.984-1.019a39.3 39.3 0 0 0 9.368-13.853 31.2 31.2 0 0 0 2.057-7.567 6 6 0 0 0-.135-2.79 6 6 0 0 0-1.38-2.427M149.061 90.24c-.453 9.557-4.944 16.645-13.354 21.076a35.9 35.9 0 0 1-15.323 4.289c-9.583.46-19.323 1.085-28.737 1.699-5.092.324-10.191.656-15.283.958-3.001.182-6.056.284-9.01.378q-2.064.071-4.128.148l-.741.02c-2.786.075-5.605.149-8.438.149a86 86 0 0 1-14.817-1.085 81 81 0 0 1-9.55-2.267c-9.954-3.061-16.361-10.063-19.052-20.806-4.674-18.681.83-35.211 15.49-46.542 4.356-3.365 9.657-6.98 15.956-8.288 15.438-3.197 28.495.87 38.814 12.106a41.8 41.8 0 0 1 8.396 13.947c1.686 4.595 1.895 8.484.656 12.26a5.8 5.8 0 0 0 .081 3.4 3.51 3.51 0 0 0 2.111 2.231 3.78 3.78 0 0 0 3.231-.393 8.7 8.7 0 0 0 1.767-1.552q.282-.303.566-.586c.796-.788 1.572-1.598 2.347-2.407 1.531-1.599 3.123-3.258 4.843-4.726 7.54-6.44 16.766-8.64 27.401-6.529 10.906 2.166 17.333 10.798 16.774 22.52m1.929-40.648c-1.619 4.357-4.546 7.932-9.206 11.25l-.298.209-.337-.135a42.6 42.6 0 0 0-21.588-2.408c-6.892.95-13.313 3.798-19.612 8.707l-.668.52-.357-.77a881 881 0 0 0-1.882-3.999c-1.517-3.203-2.947-6.225-4.25-9.354a28.6 28.6 0 0 1-1.766-6.933c-1.45-10.015.04-18.29 4.552-25.291 2.948-4.566 5.659-7.014 10.737-9.718l.614-.324.31.614c.095.202.209.398.31.586q.413.688.682 1.443c1.881 5.733 4.734 13.091 10.15 19.155 7.745 8.663 16.267 13.603 26.056 15.106q2.008.267 4.034.325c.647.033 1.294.065 1.942.107l.897.061z"/></g><defs><clipPath id="a"><path fill="#fff" d="M.33.907h164.083V127.58H.33z"/></clipPath></defs></svg>
